!!!OTL: 667. Das Leben eine Schifffahrt.
!!!ARE: Europa, Mitteleuropa, Deutschland
!!!SCT: B0667
!!!TXL: @@DE
!!!YEM: Copyright 1995, estate of Helmut Schaffrath.
**kern	**text
*ICvox	*
*Ivox	*
*clefG2	*
*M4/4	*
*met(c)	*
*k[b-e-a-]	*
*E-:	*
=1	=1
!LO:TX:a:t=Langſam.	!
{4g	Wie
4g	ein
4.b-	Schifflein
8a-	.
=2	=2
4g	auf
4a-	dem
2f}	Meer
=3	=3
{4e-	ſchwebt
4e-	das
4a-	Le-
4g	-ben
=4	=4
8.fL	ü-
16gJ	.
8.fL	-berm
16gJ	.
2f}	Tod.
=5	=5
{4b-	o-
4b-	-ben,
4ee-	un-
4dd	-ten,
=6	=6
8.ccL	rings
16ddJ	.
8ee-L	um-
8ccJ	.
2b-}	-her
=7	=7
{4a-	von
4g	Ge-
4cc	-fah-
4b-	-ren
=8	=8
4a-	ſtets
4f	um-
2e-}	-droht.
==	==
!!!AGN: Moral - Lied, Vergaenglichkeit
!!!ONB: ESAC (Essen Associative Code) Database: BOEHME
!!!AMT: simple quadruple
!!!AIN: vox
!!!EED: Helmut Schaffrath
!!!EEV: 1.0
!!!GTL: Didaktische Lieder: Betrachtungen, Vergleiche und Moralisationen
!!Mel. v. Nägeli: "Nacht und ſtill iſts um mich her. 1815.
!!@@COMMENT:"Gedicht von Friedrich Rueckert."
!!@@END:
!!!Text: F. Rückert
!!!URL-scan: https://archive.org/details/BoehmeVtLieder1895/page/n519/mode/2up
!!!ENC: Anna Maria Matuszewska
!!!EEV: 2024/16/07
*-	*-
